X:1
T:Title
%%score 1 2 3 4
L:1/8
Q:1/4=120
M:4/4
K:G
V:1 treble nm="Grand Piano"
V:2 treble nm="Grand Piano"
V:3 bass nm="Grand Piano, Melody"
V:4 bass nm="Grand Piano"
V:1
 B8 | B2 B2 B2 Bc | d2 d2 e2 B2 | BABc d2 c2 | B6 BA | G2 E2 E2 BG | A2 A2 d2 B2 | e2 e2 d2 B2 | %8
 B6 z2 | z8 | z8 | z8 | z4 z2 B2 | e2 e2 e2 d2 | g2 e2 e2 d2 | B2 B2 Bcdc | B6 BA | G2 E2 E2 GB | %18
 G2 E2 E2 d2 | e2 e2 d2 B2 | B6 gf | e2 e2 efge | d2 ef e2 B2 | e2 e2 d2 B2 | B8 |] %25
V:2
 G8 | E2 E2 E2 GA | G2 D2 E2 E2 | EFGA G2 GF | E6 D2 | G2 GA B2 B2 | A2 AB A2 GF | E2 EG D2 DB, | %8
 E6 G2 | E2 E2 E2 GB | G2 A2 A2 c2 | B2 B2 GABF | E8 | z8 | z8 | z8 | z4 z2 GA | B2 B2 B2 GB | %18
 G2 E2 E2 G2 | A2 AB G2 F2 | E6 G2 | B2 B2 B2 G2 | F2 AB A2 GF | E2 E2 D2 EF | E8 |] %25
V:3
 E,8 | B,2 B,2 B,2 B,A, | D2 B,2 B,2[K:treble] D2 | E2 E2 D2 EF | E6 DE | D2[K:bass] B,2 B,2 G,2 | %6
 A,2 A,2 A,2 G,A, | B,2[K:treble] E2 D2 EF | E6 z2 | z8 | z8 | z8 | z4 z2[K:bass] G,2 | %13
 B,2 B,2 B,2 D[K:treble]E | D2 B,2 B,2 D2 | E2 E2 EFGF | E6 GF | E2 E2 EFGF | %18
 D2[K:bass] B,2 B,2 G,2 | A,2 A,2 A,2 C2 | B,6 G,B, | G,2 E,2 E,2 G,2 | A,2 A,B, A,2 G,A, | %23
 B,2[K:treble] E2 D2 EF | E8 |] %25
V:4
 E,8 | G,2 G,2 G,2 D,2 | G,2 D,2 B,,2 D,2 | E,2 E,2 E,F,G,F, | E,6 D,2 | G,2 G,2 G,2 A,2 | %6
 D,2 D,2 D,2 B,,2 | E,2 E,2 G,2 F,2 | E,6 G,2 | B,2 B,2 B,2 G,B, | G,2 D,2 D,2 B,,2 | %11
 E,2 E,2 E,F,G,F, | E,8 | z8 | z8 | z8 | z4 z2 D,2 | E,2 E,2 E,2 G,A, | B,2 B,2 B,2 G,B, | %19
 G,2 D,2 G,2 B,,2 | E,6 G,F, | E,2 E,2 E,2 B,,C, | D,2 D,2 D,2 G,F, | E,2 E,2 D,2 B,,2 | E,8 |] %25

